X:1
T:Sonata in (K158)
T:Sonata in D  (K161)
T:Domenico SCARLATTI (1685-1757) 
%%score { ( 1 4 ) | ( 2 3 ) }
L:1/8
Q:1/4=100
M:3/8
K:D
V:1 treble nm="Piano" snm="Pno."
V:4 treble 
V:2 bass 
V:3 bass 
V:1
"^Allegro" a3 |{b} a3 |{b} ^abg |{e} ^deB | Pc d2- | d3/2e/4f/4Pg | (3f/d'/a/ (3f/d/c/ d- | %7
 d3/2e/4f/4Pg | (3f/d'/a/ (3f/d/c/ d- | d3/2e/4f/4Pg | (3f/a/f/ (3d/f/d/ (3A/d/A/ | %11
 (3F/A/F/ (3D/F/D/ (3A,/D/A,/ | z3 | f3- | (3f/e/^d/ (3e/f/g/ (3a/b/=c'/ | (3b/a/g/ (3f/e/^d/ e | %16
 e3- | (3e/d/c/ (3d/e/f/ (3g/a/b/ | (3a/g/f/ (3e/d/c/ d | d3- | (3d/e/f/ (3g/f/e/ (3d/c/B/ | %21
 (3A/g/f/ (3e/d/c/ (3B/A/B/ | (3A/g/f/ (3e/d/c/ (3B/A/B/ | (3A/e/d/ (3c/B/A/ (3G/F/G/ | %24
 (3F/e/d/ (3c/B/A/ (3G/F/G/ | (3F/c/B/ (3A/G/F/ (3E/D/E/ | (3D/c/B/ (3A/G/F/ (3E/D/E/ | %27
 (3D/C/D/ (3E/D/E/ (3F/E/F/ | (3^G/F/G/ (3A/G/A/ (3B/A/B/ | (3c/B/c/ (3d/c/d/ (3e/d/e/ | %30
 (3f/e/f/ (3^g/f/g/ (3a/c/a/- | a3/2^g/4f/4e || !fermata!z3 || (3b/^g/e/ (3B/^G/B/ b | =c'3 | %35
 (3b/^g/e/ (3B/^G/B/ b | =c'3 | (3b/^g/e/ (3B/^G/B/ d' | (3c'/b/a/ (3^g/a/b/ (3e/a/g/ | %39
 (3f/e/d/ (3c/B/A/ (3^G/A/B/ | (3A,/C/E/ (3A/c/e/ a- | (3a/f/d/ A^G | (3A,/C/E/ (3A/c/e/ a- | %43
 (3a/f/d/ A^G | (3A/d/c/ (3B/e/d/ (3c/f/e/ | (3d/c/B/ A^G | (3A/d/c/ (3B/e/d/ (3c/f/e/ | %47
 (3d/c/B/ AP^G |{^G} A3 :: Pe3 | Pe3 |{^e} f3 | Pf3 | f3 | g3 |{a} Pg3 |{a} P^g3 |{^g} a3 | c'3- | %59
 (3c'/d'/c'/ (3b/a/g/ (3g/e/d/ | c'3- | (3c'/d'/c'/ (3b/a/g/ (3f/e/d/ | a3- | %63
 (3a/b/a/ (3g/f/e/ (3d/c/B/ | a3- | (3a/b/a/ (3g/f/e/ (3d/c/B/ | f3- | (3f/g/f/ (3e/d/c/ (3B/A/G/ | %68
 f3 | (3B/A/B/ (3c/B/c/ (3d/c/d/ | (3e/d/e/ (3f/e/f/ (3^g/f/g/ | (3a/e/d/ (3e/c/B/ (3c/A/^G/ | %72
 (3A/E/D/ (3E/[I:staff +1]C/B,/ (3C/A,/^G,/ |[I:staff -1] z3 || !fermata!z3 || %75
 (3e/c/A/ (3E/C/E/ e | =f3 | (3e/c/A/ (3E/C/E/ e | =f3 | (3b/e/c/ (3A/c/e/ a | _b x2 | %81
 (3c'/g/e/ (3c/A/c/ a | _b x2 | (3c'/g/e/ (3c/A/c/ (3g/f/e/ | (3f/e/f/ (3g/f/g/ (3a/g/a/ | %85
 (3b/a/g/ (3f/e/d/ (3c/d/e/ | (3D/F/A/ (3d/f/a/ d'- | (3d'/b/g/ dc | (3D/F/A/ (3d/f/a/ d'- | %89
 (3d'/b/g/ dc | (3d/g/f/ (3e/a/g/ (3f/b/a/ | (3g/f/e/ dc | (3D/G/F/ (3E/A/G/ (3F/B/A/ | %93
 (3G/F/E/ DMC | MD3 :| %95
V:2
 D,F,A, | DFA | G3 | G3 | GFD | ECA, | D2 F | ECA, | D2 F | ECA, | D3 | D,3 | (3F,/A,/F,/ PD,2 | %13
[K:treble] [DF][E^G][F^A] | [GB]2 [F=A] | [EG][FA][GB] | [CE][DF][EG] | [FA]2 [EG] | [DF][EG][FA] | %19
 [B,D][CE][DF] | [EG]2 [DG] | [CG]2 [DG] | [CG]2 [DG] | [CG]2 [CE] | D2 [CE] | D2[K:bass] [A,C] | %26
 B,2 [A,C] | B,CD | [B,D][CE]^G, | [A,E][F,D][C,A,] | [D,A,][B,,B,][A,,A,] | E,,3 || !fermata!z3 || %33
 z2 E- | E D2 | E,2 E- | E D2 | E,2 E | [A,E][B,D][CE] | [DF]EE, | A,,2 [C,A,] | [D,D] CB, | %42
 A,,2 [C,A,] | [D,D] CB, | [F,A,][^G,B,][A,C] | [D,D] CB, | [F,A,][^G,B,][A,C] | [D,D] CB, | %48
 A,,3 :: A,,C,E, | A,CE | D,2 D | D,G,A, | =CAC | B,2 G | E,A,B, |[K:treble] DBD | C2 A | %58
 [Ac][Bd][ce] | [df]2 z | [Ac][Bd][ce] | [df]2 z | [FA][GB][Ac] | [Bd]2 z | [FA][GB][Ac] | %65
 [Bd]2 z | [DF][EG][FA] | [GB]2 z | [DF][EG][FA] | GEF | [CE][DF][B,D] |[K:bass] A,3 | A,,3 | %73
 A,,3 || !fermata!z3 || z2 A,- | A, G,2 | A,,2 A,- | A, G,2 | A,,2 A, | G,G_B, | A,2 A, | G,G_B, | %83
 [A,G]2 [A,E] | [D,D][E,C][F,D] | [G,D]A,A,, | D,,2 [F,D] | [G,G] FE | D,2 [F,D] | [G,G] FE | %90
 [A,D][CE][DF] | [G,G] FE | B,CD | G,A,A,, | D,,3 :| %95
V:3
 x3 | x3 | x3 | x3 | x3 | x3 | x3 | x3 | x3 | x3 | x3 | x3 | D,,3 |[K:treble] x3 | x3 | x3 | x3 | %17
 x3 | x3 | x3 | x3 | x3 | x3 | x3 | x3 | x2[K:bass] x | x3 | x3 | x3 | x3 | x3 | x3 || x3 || %33
 x2 E, | =F,3 | x3 | =F,3 | x3 | x3 | x3 | x3 | x E,2 | x3 | x E,2 | x3 | x E,2 | x3 | x E,2 | %48
 x3 :: x3 | x3 | x3 | x3 | x3 | x3 | x3 |[K:treble] x3 | x3 | x3 | x3 | x3 | x3 | x3 | x3 | x3 | %65
 x3 | x3 | x3 | x3 | x3 | x3 |[K:bass] E x2 | x3 | A,3 || x3 || x2 A,, | _B,,3 | x3 | _B,,3 | x3 | %80
 x3 | G3 | x3 | x3 | x3 | x3 | x3 | x A,2 | x3 | x A,2 | x3 | x A,2 | x3 | x3 | x3 :| %95
V:4
 x3 | x3 | x3 | x3 | x3 | x3 | x3 | x3 | x3 | x3 | x3 | x3 | x3 | x3 | x3 | x3 | x3 | x3 | x3 | %19
 x3 | x3 | x3 | x3 | x3 | x3 | x3 | x3 | x3 | x3 | x3 | x3 | x3 || x3 || x2 B | b=cd | x2 B | %36
 b=cd | x3 | x3 | x3 | x3 | x3 | x3 | x3 | x3 | x3 | x3 | x3 | x3 :: x3 | x3 | x3 | x3 | x3 | x3 | %55
 x3 | x3 | x3 | x3 | x3 | x3 | x3 | x3 | x3 | x3 | x3 | x3 | x3 | x3 | x3 | x3 | x3 | x3 | x3 || %74
 x3 || x3 | e=FG | x3 | e=FG | x3 | agd' | x3 | agd' | x3 | x3 | x3 | x3 | x3 | x3 | x3 | x3 | x3 | %92
 x3 | x3 | x3 :| %95

